build/img/sprite.svg

<svg xmlns="http://www.w3.org/2000/svg" xmlns:xlink="http://www.w3.org/1999/xlink"><symbol id="icon-arrow-left" viewBox="0 0 30 11">
<path d="M30 5.5L1 5.5M1 5.5L6.48649 10M1 5.5L6.48649 1" stroke="#A87B62"/>
</symbol><symbol id="icon-arrow-right" viewBox="0 0 30 11">
<path d="M0 5.5H29M29 5.5L23.5135 1M29 5.5L23.5135 10" stroke="#A87B62"/>
</symbol><symbol id="icon-burger" viewBox="0 0 25 18">
<path d="M0 1H25M0 9H25M0 17H25" stroke="inherit" stroke-width="2"/>
</symbol><symbol id="icon-cart" viewBox="0 0 20 18">
<path d="M14 5C14 6.06087 13.5786 7.07828 12.8284 7.82843C12.0783 8.57857 11.0609 9 10 9C8.93913 9 7.92172 8.57857 7.17157 7.82843C6.42143 7.07828 6 6.06087 6 5M1 1H19V17H1V1Z" stroke="inherit" stroke-width="2" stroke-linecap="round" stroke-linejoin="round"/>
</symbol><symbol id="icon-close" viewBox="0 0 14 14">
<path d="M7 5.44469L12.4447 0L14 1.55531L8.55531 7L14 12.4447L12.4447 14L7 8.55531L1.55531 14L0 12.4447L5.44469 7L0 1.55531L1.55531 0L7 5.44469Z" fill="#1D1613"/>
</symbol><symbol id="icon-facebook" viewBox="0 0 8 15">
<path d="M5.33333 8.625H7.2381L8 5.625H5.33333V4.125C5.33333 3.3525 5.33333 2.625 6.85714 2.625H8V0.105C7.75162 0.0727501 6.81371 0 5.82324 0C3.75467 0 2.28571 1.24275 2.28571 3.525V5.625H0V8.625H2.28571V15H5.33333V8.625Z" fill="white"/>
</symbol><symbol id="icon-instagram" viewBox="0 0 15 15">
<path d="M7.5 0C9.53775 0 9.792 0.00749996 10.5915 0.045C11.3902 0.0825 11.934 0.20775 12.4125 0.39375C12.9075 0.58425 13.3245 0.84225 13.7415 1.2585C14.1229 1.63342 14.418 2.08694 14.6063 2.5875C14.7915 3.06525 14.9175 3.60975 14.955 4.4085C14.9902 5.208 15 5.46225 15 7.5C15 9.53775 14.9925 9.792 14.955 10.5915C14.9175 11.3902 14.7915 11.934 14.6063 12.4125C14.4185 12.9133 14.1233 13.367 13.7415 13.7415C13.3665 14.1227 12.913 14.4178 12.4125 14.6063C11.9347 14.7915 11.3902 14.9175 10.5915 14.955C9.792 14.9902 9.53775 15 7.5 15C5.46225 15 5.208 14.9925 4.4085 14.955C3.60975 14.9175 3.066 14.7915 2.5875 14.6063C2.08674 14.4184 1.63315 14.1232 1.2585 13.7415C0.877055 13.3666 0.581948 12.9131 0.39375 12.4125C0.20775 11.9347 0.0825 11.3902 0.045 10.5915C0.00974996 9.792 0 9.53775 0 7.5C0 5.46225 0.00749996 5.208 0.045 4.4085C0.0825 3.609 0.20775 3.066 0.39375 2.5875C0.581427 2.08663 0.876603 1.63299 1.2585 1.2585C1.63325 0.876923 2.08682 0.581797 2.5875 0.39375C3.066 0.20775 3.609 0.0825 4.4085 0.045C5.208 0.00974996 5.46225 0 7.5 0ZM7.5 3.75C6.50544 3.75 5.55161 4.14509 4.84835 4.84835C4.14509 5.55161 3.75 6.50544 3.75 7.5C3.75 8.49456 4.14509 9.44839 4.84835 10.1517C5.55161 10.8549 6.50544 11.25 7.5 11.25C8.49456 11.25 9.44839 10.8549 10.1517 10.1517C10.8549 9.44839 11.25 8.49456 11.25 7.5C11.25 6.50544 10.8549 5.55161 10.1517 4.84835C9.44839 4.14509 8.49456 3.75 7.5 3.75V3.75ZM12.375 3.5625C12.375 3.31386 12.2762 3.0754 12.1004 2.89959C11.9246 2.72377 11.6861 2.625 11.4375 2.625C11.1889 2.625 10.9504 2.72377 10.7746 2.89959C10.5988 3.0754 10.5 3.31386 10.5 3.5625C10.5 3.81114 10.5988 4.0496 10.7746 4.22541C10.9504 4.40123 11.1889 4.5 11.4375 4.5C11.6861 4.5 11.9246 4.40123 12.1004 4.22541C12.2762 4.0496 12.375 3.81114 12.375 3.5625ZM7.5 5.25C8.09674 5.25 8.66903 5.48705 9.09099 5.90901C9.51295 6.33097 9.75 6.90326 9.75 7.5C9.75 8.09674 9.51295 8.66903 9.09099 9.09099C8.66903 9.51295 8.09674 9.75 7.5 9.75C6.90326 9.75 6.33097 9.51295 5.90901 9.09099C5.48705 8.66903 5.25 8.09674 5.25 7.5C5.25 6.90326 5.48705 6.33097 5.90901 5.90901C6.33097 5.48705 6.90326 5.25 7.5 5.25V5.25Z" fill="white"/>
</symbol><symbol id="icon-logo" viewBox="0 0 66 66">
<path fill-rule="evenodd" clip-rule="evenodd" d="M10.1262 10.1191L33 0.644445L55.8738 10.1191L65.3514 33L55.8738 55.8809L33 65.3556L10.1262 55.8809L0.648582 33L10.1262 10.1191ZM33 0L56.3345 9.66548L66 33L56.3345 56.3345L33 66L9.66548 56.3345L0 33L9.66548 9.66548L33 0ZM28.5672 26.4166C27.948 26.2882 27.1848 26.224 26.2776 26.224C24.7944 26.224 23.4552 26.5094 22.26 27.0802C21.0792 27.651 20.1504 28.4573 19.4736 29.499C18.7968 30.5265 18.4584 31.7109 18.4584 33.0523C18.4584 34.4365 18.7896 35.6638 19.452 36.7341C20.1144 37.8043 21.036 38.6391 22.2168 39.2385C23.412 39.8236 24.7656 40.1161 26.2776 40.1161C27.1272 40.1161 27.876 40.0448 28.524 39.9021C29.1864 39.7593 29.892 39.5096 30.6408 39.1529C30.7272 39.0958 30.7848 39.0458 30.8136 39.003C30.8424 38.9602 30.864 38.8532 30.8784 38.6819L31.0944 36.3274C31.0944 36.2845 31.044 36.2631 30.9432 36.2631C30.8712 36.2631 30.8352 36.2774 30.8352 36.3059C30.4464 37.4761 29.8848 38.3466 29.1504 38.9174C28.416 39.4882 27.4584 39.7736 26.2776 39.7736C25.1688 39.7736 24.1392 39.4739 23.1888 38.8746C22.2528 38.2752 21.504 37.4618 20.9424 36.4344C20.3952 35.3926 20.1216 34.251 20.1216 33.0095C20.1216 31.7109 20.3736 30.5764 20.8776 29.6061C21.3816 28.6214 22.0944 27.8651 23.016 27.3371C23.9376 26.8091 25.0032 26.5451 26.2128 26.5451C28.5168 26.5451 30 27.7366 30.6624 30.1198C30.6768 30.1626 30.72 30.184 30.792 30.184C30.8784 30.1697 30.9216 30.1412 30.9216 30.0984L30.6624 27.5511C30.6336 27.3799 30.612 27.2729 30.5976 27.2301C30.5832 27.1872 30.5256 27.1373 30.4248 27.0802C29.8056 26.7663 29.1864 26.5451 28.5672 26.4166ZM47.8678 39.7094C47.8678 39.6238 47.8462 39.581 47.803 39.581C47.2558 39.581 46.8526 39.5453 46.5934 39.4739C46.3342 39.4026 46.1542 39.267 46.0534 39.0672C45.967 38.8532 45.9238 38.5321 45.9238 38.104V28.1933C45.9238 27.7652 45.967 27.4512 46.0534 27.2515C46.1542 27.0517 46.3342 26.9161 46.5934 26.8448C46.8526 26.7591 47.2558 26.7163 47.803 26.7163C47.8462 26.7163 47.8678 26.6735 47.8678 26.5879C47.8678 26.5023 47.8462 26.4595 47.803 26.4595L46.7446 26.4809C46.1398 26.5094 45.643 26.5237 45.2542 26.5237C44.8222 26.5237 44.2894 26.5094 43.6558 26.4809L42.6406 26.4595C42.5974 26.4595 42.5758 26.5023 42.5758 26.5879C42.5758 26.6735 42.5974 26.7163 42.6406 26.7163C43.2022 26.7163 43.6126 26.7591 43.8718 26.8448C44.131 26.9304 44.3038 27.0802 44.3902 27.2943C44.491 27.4941 44.5414 27.808 44.5414 28.2361V32.6456H36.247V28.2361C36.247 27.808 36.2902 27.4941 36.3766 27.2943C36.4774 27.0802 36.6574 26.9304 36.9166 26.8448C37.1902 26.7591 37.6006 26.7163 38.1478 26.7163C38.1766 26.7163 38.191 26.6735 38.191 26.5879C38.191 26.5023 38.1766 26.4595 38.1478 26.4595L37.111 26.4809C36.4774 26.5094 35.9518 26.5237 35.5342 26.5237C35.1742 26.5237 34.6918 26.5094 34.087 26.4809L32.9854 26.4595C32.9566 26.4595 32.9422 26.5023 32.9422 26.5879C32.9422 26.6735 32.9566 26.7163 32.9854 26.7163C33.5326 26.7163 33.9358 26.7591 34.195 26.8448C34.4542 26.9161 34.627 27.0517 34.7134 27.2515C34.8142 27.4512 34.8646 27.7652 34.8646 28.1933V38.104C34.8646 38.5321 34.8142 38.8532 34.7134 39.0672C34.627 39.267 34.447 39.4026 34.1734 39.4739C33.9142 39.5453 33.511 39.581 32.9638 39.581C32.935 39.581 32.9206 39.6238 32.9206 39.7094C32.9206 39.795 32.935 39.8378 32.9638 39.8378C33.4246 39.8378 33.7846 39.8307 34.0438 39.8164L35.5342 39.795L37.0894 39.8164C37.3486 39.8307 37.7014 39.8378 38.1478 39.8378C38.1766 39.8378 38.191 39.795 38.191 39.7094C38.191 39.6238 38.1766 39.581 38.1478 39.581C37.5862 39.581 37.1758 39.5453 36.9166 39.4739C36.6574 39.4026 36.4774 39.267 36.3766 39.0672C36.2902 38.8532 36.247 38.5321 36.247 38.104V33.0951H44.5414V38.104C44.5414 38.5321 44.491 38.8532 44.3902 39.0672C44.3038 39.267 44.131 39.4026 43.8718 39.4739C43.6126 39.5453 43.2022 39.581 42.6406 39.581C42.5974 39.581 42.5758 39.6238 42.5758 39.7094C42.5758 39.795 42.5974 39.8378 42.6406 39.8378C43.0726 39.8378 43.411 39.8307 43.6558 39.8164L45.2542 39.795L46.7446 39.8164C47.0038 39.8307 47.3566 39.8378 47.803 39.8378C47.8462 39.8378 47.8678 39.795 47.8678 39.7094Z" fill="inherit"/>
</symbol><symbol id="icon-longArrow-right" viewBox="0 0 30 11">
<path d="M0 5.5H29M29 5.5L23.5135 1M29 5.5L23.5135 10" stroke="white"/>
</symbol><symbol id="icon-minus" viewBox="0 0 14 2">
<path d="M0 0H14V2H0V0Z" fill="#9B9997"/>
</symbol><symbol id="icon-pinterest" viewBox="0 0 16 15">
<path d="M8.52464 0.0700085C6.73009 -0.176851 4.90683 0.233922 3.39151 1.22648C1.8762 2.21903 0.771177 3.72633 0.280492 5.47006C-0.210193 7.21378 -0.0534017 9.07616 0.721915 10.7133C1.49723 12.3504 2.83871 13.6518 4.49864 14.377C4.45375 13.8009 4.49496 13.2213 4.62089 12.6573C4.75964 12.028 5.59289 8.56001 5.59289 8.56001C5.42697 8.18808 5.34405 7.78448 5.34989 7.37726C5.34989 6.26351 5.99264 5.43251 6.79214 5.43251C6.93577 5.43042 7.07817 5.45928 7.20965 5.51713C7.34113 5.57498 7.45861 5.66047 7.5541 5.76778C7.6496 5.87508 7.72087 6.00169 7.76306 6.139C7.80526 6.27631 7.81739 6.42109 7.79864 6.56351C7.79864 7.23851 7.36514 8.26001 7.13864 9.21851C7.09388 9.39429 7.09104 9.57814 7.13035 9.75522C7.16966 9.93231 7.25002 10.0977 7.36496 10.238C7.4799 10.3783 7.6262 10.4897 7.79207 10.5631C7.95793 10.6366 8.13873 10.67 8.31989 10.6608C9.74339 10.6608 10.6974 8.83751 10.6974 6.68501C10.6974 5.03501 9.60464 3.79901 7.59014 3.79901C7.10817 3.78028 6.62743 3.8597 6.17709 4.03245C5.72676 4.2052 5.31623 4.46767 4.97043 4.80392C4.62463 5.14018 4.35078 5.54321 4.16551 5.98854C3.98023 6.43387 3.8874 6.9122 3.89264 7.39451C3.87117 7.9295 4.04377 8.45423 4.37864 8.87201C4.44122 8.91872 4.48691 8.98451 4.50882 9.05946C4.53074 9.1344 4.52769 9.21444 4.50014 9.28751C4.46564 9.42551 4.37864 9.75476 4.34414 9.87551C4.33697 9.91646 4.32027 9.95515 4.29541 9.98847C4.27054 10.0218 4.2382 10.0488 4.20099 10.0673C4.16378 10.0859 4.12273 10.0954 4.08116 10.0952C4.03959 10.0949 3.99865 10.085 3.96164 10.066C2.92364 9.65051 2.43464 8.50826 2.43464 7.20401C2.43464 5.06876 4.22264 2.51276 7.80014 2.51276C10.6471 2.51276 12.5401 4.59551 12.5401 6.82301C12.5401 9.75476 10.9074 11.959 8.49464 11.959C8.13403 11.9705 7.77634 11.891 7.45464 11.7276C7.13294 11.5643 6.85762 11.3224 6.65414 11.0245C6.65414 11.0245 6.22064 12.7615 6.13514 13.09C5.96061 13.6575 5.70307 14.1961 5.37089 14.6883C6.06314 14.8983 6.78239 15.0033 7.50539 15.0003C8.49058 15.001 9.46624 14.8075 10.3765 14.4307C11.2868 14.0539 12.1138 13.5012 12.8102 12.8043C13.5066 12.1075 14.0587 11.2801 14.4348 10.3695C14.811 9.45899 15.0039 8.48319 15.0024 7.49801C15.0015 5.68676 14.3452 3.937 13.1549 2.57184C11.9645 1.20668 10.3204 0.318307 8.52614 0.0707584L8.52464 0.0700085Z" fill="white"/>
</symbol><symbol id="icon-plus" viewBox="0 0 14 14">
<path d="M0 6.125H14V7.875H0V6.125Z" fill="#9B9997"/>
<path d="M6.125 14V0H7.875V14H6.125Z" fill="#9B9997"/>
</symbol><symbol id="icon-search" viewBox="0 0 14 14">
<path d="M11.0482 10.0737L14 13.0248L13.0248 14L10.0737 11.0482C8.9757 11.9285 7.60993 12.4072 6.20262 12.4052C2.77877 12.4052 0 9.62646 0 6.20262C0 2.77877 2.77877 0 6.20262 0C9.62646 0 12.4052 2.77877 12.4052 6.20262C12.4072 7.60993 11.9285 8.9757 11.0482 10.0737ZM9.66575 9.56237C10.5404 8.66291 11.0289 7.45722 11.0269 6.20262C11.0269 3.53687 8.86768 1.37836 6.20262 1.37836C3.53687 1.37836 1.37836 3.53687 1.37836 6.20262C1.37836 8.86768 3.53687 11.0269 6.20262 11.0269C7.45722 11.0289 8.66291 10.5404 9.56237 9.66575L9.66575 9.56237Z" fill="inherit"/>
</symbol><symbol id="icon-tick-down" viewBox="0 0 17 10">
<path d="M1 1L8.5 9L16 1" stroke="#A87B62"/>
</symbol><symbol id="icon-tick-up" viewBox="0 0 17 10">
<path d="M16 9L8.5 1L1 9" stroke="#A87B62"/>
</symbol><symbol id="icon-twitter" viewBox="0 0 15 13">
<path d="M14.9993 1.54324C14.4375 1.80812 13.8417 1.98209 13.2317 2.05937C13.8747 1.64947 14.3559 1.00438 14.5857 0.244297C13.9823 0.627078 13.3207 0.895338 12.6312 1.04045C12.1681 0.512227 11.5542 0.161908 10.885 0.0439529C10.2158 -0.0740019 9.52875 0.047017 8.93073 0.388195C8.33271 0.729374 7.85718 1.2716 7.57809 1.93057C7.29899 2.58954 7.23196 3.32833 7.38741 4.0321C6.16374 3.96673 4.96664 3.62777 3.87384 3.03724C2.78104 2.4467 1.81696 1.6178 1.0442 0.604331C0.770671 1.10512 0.626929 1.67441 0.627698 2.2539C0.627698 3.39126 1.17077 4.39606 1.99642 4.98435C1.50781 4.96795 1.02995 4.8273 0.602679 4.57411V4.6149C0.602826 5.37238 0.848731 6.1065 1.2987 6.69279C1.74867 7.27907 2.37501 7.68144 3.07153 7.83167C2.61795 7.96269 2.14235 7.98201 1.68073 7.88815C1.87711 8.54016 2.25987 9.11038 2.77541 9.51897C3.29095 9.92757 3.91346 10.1541 4.55578 10.1668C3.9174 10.7012 3.18645 11.0963 2.40474 11.3294C1.62303 11.5625 0.805873 11.6291 0 11.5253C1.40676 12.4897 3.04437 13.0017 4.71693 13C10.378 13 13.4738 8.0011 13.4738 3.66579C13.4738 3.5246 13.4701 3.38184 13.4642 3.24222C14.0668 2.778 14.5869 2.20293 15 1.54403L14.9993 1.54324Z" fill="white"/>
</symbol></svg>

<svg xmlns="http://www.w3.org/2000/svg" xmlns:xlink="http://www.w3.org/1999/xlink"><symbol id="icon-arrow-left"><path d="M30 5.5H1m0 0L6.486 10M1 5.5L6.486 1" stroke="#A87B62"/></symbol><symbol id="icon-arrow-right"><path d="M0 5.5h29m0 0L23.514 1M29 5.5L23.514 10" stroke="#A87B62"/></symbol><symbol id="icon-burger"><path d="M0 1h25M0 9h25M0 17h25" stroke="inherit" stroke-width="2"/></symbol><symbol id="icon-cart"><path d="M14 5a4 4 0 11-8 0M1 1h18v16H1V1z" stroke="inherit" stroke-width="2" stroke-linecap="round" stroke-linejoin="round"/></symbol><symbol id="icon-close"><path d="M7 5.445L12.445 0 14 1.555 8.555 7 14 12.445 12.445 14 7 8.555 1.555 14 0 12.445 5.445 7 0 1.555 1.555 0 7 5.445z" fill="#1D1613"/></symbol><symbol id="icon-facebook"><path d="M5.333 8.625h1.905l.762-3H5.333v-1.5c0-.772 0-1.5 1.524-1.5H8V.105A21.797 21.797 0 005.823 0C3.755 0 2.286 1.243 2.286 3.525v2.1H0v3h2.286V15h3.047V8.625z" fill="#fff"/></symbol><symbol id="icon-instagram"><path d="M7.5 0c2.038 0 2.292.007 3.091.045.8.038 1.343.163 1.822.349.495.19.912.448 1.329.864.38.375.676.829.864 1.33.185.477.312 1.022.349 1.82.035.8.045 1.054.045 3.092 0 2.038-.008 2.292-.045 3.091-.037.8-.164 1.343-.349 1.822-.188.5-.483.954-.864 1.329a3.687 3.687 0 01-1.33.864c-.477.185-1.022.312-1.82.349-.8.035-1.054.045-3.092.045-2.038 0-2.292-.008-3.091-.045-.8-.037-1.343-.164-1.821-.349a3.668 3.668 0 01-1.33-.864 3.678 3.678 0 01-.864-1.33c-.186-.477-.311-1.022-.349-1.82C.01 9.791 0 9.537 0 7.5c0-2.038.007-2.292.045-3.091.038-.8.163-1.343.349-1.821.187-.501.483-.955.864-1.33a3.673 3.673 0 011.33-.864C3.066.208 3.608.083 4.407.045 5.208.01 5.463 0 7.5 0zm0 3.75a3.75 3.75 0 100 7.5 3.75 3.75 0 000-7.5zm4.875-.188a.938.938 0 10-1.875 0 .938.938 0 001.875 0zM7.5 5.25a2.25 2.25 0 110 4.5 2.25 2.25 0 010-4.5z" fill="#fff"/></symbol><symbol id="icon-logo"><path fill-rule="evenodd" clip-rule="evenodd" d="M10.126 10.12L33 .643l22.874 9.475L65.35 33l-9.477 22.88L33 65.357 10.126 55.88.65 33l9.477-22.88zM33 0l23.334 9.665L66 33l-9.666 23.334L33 66 9.665 56.334 0 33 9.665 9.665 33 0zm-4.433 26.417c-.619-.129-1.382-.193-2.29-.193-1.483 0-2.822.285-4.017.856-1.18.571-2.11 1.377-2.786 2.419-.677 1.027-1.016 2.212-1.016 3.553 0 1.385.332 2.612.994 3.682.662 1.07 1.584 1.905 2.765 2.505 1.195.585 2.549.877 4.06.877.85 0 1.599-.071 2.247-.214a9.692 9.692 0 002.117-.75.633.633 0 00.173-.149c.028-.043.05-.15.064-.321l.216-2.355c0-.042-.05-.064-.15-.064-.073 0-.109.014-.109.043-.389 1.17-.95 2.04-1.685 2.611-.734.571-1.692.857-2.872.857a5.68 5.68 0 01-3.09-.9c-.935-.599-1.684-1.412-2.246-2.44-.547-1.041-.82-2.183-.82-3.424 0-1.3.252-2.434.756-3.404.504-.985 1.216-1.74 2.138-2.269.922-.528 1.987-.792 3.197-.792 2.304 0 3.787 1.192 4.45 3.575.014.043.057.064.129.064.086-.014.13-.043.13-.086l-.26-2.547a2.893 2.893 0 00-.064-.32c-.015-.044-.072-.094-.173-.15a7.457 7.457 0 00-1.858-.664zm19.3 13.292c0-.085-.02-.128-.064-.128-.547 0-.95-.036-1.21-.107-.259-.071-.439-.207-.54-.407-.086-.214-.13-.535-.13-.963v-9.91c0-.429.044-.743.13-.942.101-.2.281-.336.54-.407.26-.086.663-.129 1.21-.129.043 0 .065-.043.065-.128 0-.086-.022-.129-.065-.129l-1.058.022c-.605.028-1.102.043-1.49.043-.433 0-.966-.015-1.6-.043l-1.014-.022c-.044 0-.065.043-.065.129 0 .085.021.128.065.128.561 0 .972.043 1.23.129.26.085.433.235.52.45.1.2.15.513.15.941v4.41h-8.294v-4.41c0-.428.043-.742.13-.942.1-.214.28-.364.54-.45.273-.085.684-.128 1.23-.128.03 0 .044-.043.044-.128 0-.086-.014-.129-.043-.129l-1.037.022c-.634.028-1.16.043-1.577.043-.36 0-.842-.015-1.447-.043l-1.102-.022c-.028 0-.043.043-.043.129 0 .085.015.128.043.128.548 0 .95.043 1.21.129.26.071.432.207.518.407.101.2.152.513.152.941v9.911c0 .428-.05.75-.152.963-.086.2-.266.336-.54.407-.259.071-.662.107-1.21.107-.028 0-.042.043-.042.128 0 .086.014.129.043.129.46 0 .82-.007 1.08-.022l1.49-.021 1.555.021c.26.015.612.022 1.059.022.029 0 .043-.043.043-.129 0-.085-.014-.128-.043-.128-.562 0-.972-.036-1.231-.107-.26-.071-.44-.207-.54-.407-.087-.214-.13-.535-.13-.963v-5.009h8.294v5.009c0 .428-.05.75-.15.963-.087.2-.26.336-.52.407-.258.071-.669.107-1.23.107-.044 0-.065.043-.065.128 0 .086.021.129.065.129.432 0 .77-.007 1.015-.022l1.598-.021 1.49.021c.26.015.613.022 1.059.022.043 0 .065-.043.065-.129z" fill="inherit"/></symbol><symbol id="icon-longArrow-right"><path d="M0 5.5h29m0 0L23.514 1M29 5.5L23.514 10" stroke="#fff"/></symbol><symbol id="icon-minus"><path d="M0 0h14v2H0V0z" fill="#9B9997"/></symbol><symbol id="icon-pinterest"><path d="M8.525.07a7.502 7.502 0 00-4.026 14.307 5.818 5.818 0 01.122-1.72c.139-.629.972-4.097.972-4.097a2.804 2.804 0 01-.243-1.183c0-1.113.643-1.944 1.442-1.944A1 1 0 017.8 6.563c0 .676-.434 1.697-.66 2.656a1.158 1.158 0 001.18 1.442c1.424 0 2.378-1.823 2.378-3.976 0-1.65-1.092-2.886-3.107-2.886a3.56 3.56 0 00-3.697 3.596 2.22 2.22 0 00.486 1.477.36.36 0 01.121.416c-.034.138-.121.467-.156.588a.265.265 0 01-.382.19c-1.038-.415-1.527-1.558-1.527-2.862 0-2.135 1.788-4.691 5.365-4.691 2.847 0 4.74 2.083 4.74 4.31 0 2.932-1.633 5.136-4.045 5.136a2.145 2.145 0 01-1.84-.934s-.434 1.736-.52 2.065a6.021 6.021 0 01-.764 1.598c.692.21 1.411.315 2.134.312a7.493 7.493 0 007.497-7.502A7.502 7.502 0 008.526.071L8.525.07z" fill="#fff"/></symbol><symbol id="icon-plus"><path d="M0 6.125h14v1.75H0v-1.75z" fill="#9B9997"/><path d="M6.125 14V0h1.75v14h-1.75z" fill="#9B9997"/></symbol><symbol id="icon-search"><path d="M11.048 10.074L14 13.024l-.975.976-2.951-2.952A6.205 6.205 0 010 6.202 6.205 6.205 0 016.203 0a6.205 6.205 0 014.845 10.074zm-1.382-.512a4.808 4.808 0 001.36-3.36 4.823 4.823 0 00-4.823-4.824 4.822 4.822 0 00-4.825 4.825 4.823 4.823 0 004.825 4.824 4.808 4.808 0 003.36-1.361l.103-.104z" fill="inherit"/></symbol><symbol id="icon-tick-down">
  <path d="M1 1l7.5 8L16 1" stroke="#A87B62"/>
</symbol><symbol id="icon-tick-up"><path d="M16 9L8.5 1 1 9" stroke="#A87B62"/></symbol><symbol id="icon-twitter"><path d="M15 1.543a5.875 5.875 0 01-1.768.516A3.263 3.263 0 0014.586.244a5.925 5.925 0 01-1.955.796 3.025 3.025 0 00-1.746-.996 2.913 2.913 0 00-1.954.344 3.206 3.206 0 00-1.353 1.543 3.48 3.48 0 00-.19 2.101 8.318 8.318 0 01-3.514-.995A8.868 8.868 0 011.044.604a3.44 3.44 0 00-.416 1.65c0 1.137.543 2.142 1.368 2.73a2.924 2.924 0 01-1.393-.41v.04c0 .758.246 1.492.696 2.079.45.586 1.076.988 1.773 1.139-.454.13-.93.15-1.391.056a3.287 3.287 0 001.094 1.631 2.958 2.958 0 001.78.648 6.03 6.03 0 01-2.15 1.162c-.782.233-1.6.3-2.405.196A8.318 8.318 0 004.717 13c5.661 0 8.757-4.999 8.757-9.334 0-.141-.004-.284-.01-.424A6.496 6.496 0 0015 1.544z" fill="#fff"/></symbol></svg>
